assets/foundersBg.svg

<svg width="5760" height="1371" viewBox="0 0 5760 1371" fill="none" xmlns="http://www.w3.org/2000/svg">
<rect x="1920" width="1920" height="1371" fill="#001E20"/>
<rect x="3840" width="1920" height="1371" fill="#001E20"/>
<rect width="1920" height="1371" fill="#001E20"/>
<g style="mix-blend-mode:multiply" opacity="0.32">
<path d="M2040.5 522.222L643.5 1371H1920H3840H5302.5L3788.5 419.926L3460.5 201L2773.5 849.43L2040.5 522.222Z" fill="#001E20"/>
</g>
<path opacity="0.38" d="M1920 596.811L2040.5 522.222L2773.5 849.43L3460.5 201L3788.5 419.926L3612 378.5L3635.5 555.5L3460.5 378.5L3388.5 450L3334 406L2773.5 849.43L2227.5 668.5L2204.5 739L2074.5 638.5L1978 722V646.5L643.5 1371L1920 596.811Z" fill="#003639"/>
<g style="mix-blend-mode:screen" opacity="0.15">
<circle cx="2059.5" cy="275.5" r="129.5" fill="#001E20"/>
</g>
<g style="mix-blend-mode:screen" opacity="0.2">
<circle cx="3255.5" cy="122.5" r="68.5" fill="#001E20"/>
</g>
<g style="mix-blend-mode:screen" opacity="0.2">
<circle cx="3604" cy="197" r="25" fill="#001E20"/>
</g>
</svg>

<svg xmlns="http://www.w3.org/2000/svg" width="5760" height="1371" fill="none" xmlns:v="https://vecta.io/nano"><g fill="#001e20"><path d="M1920 0h1920v1371H1920z"/><path d="M3840 0h1920v1371H3840zM0 0h1920v1371H0z"/><path d="M2040.5 522.222L643.5 1371h4659l-1514-951.074L3460.5 201l-687 648.43-733-327.208z" style="mix-blend-mode:multiply" opacity=".32"/></g><path opacity=".38" d="M1920 596.81l120.5-74.59 733 327.208 687-648.43 328 218.926L3612 378.5l23.5 177-175-177-72 71.5-54.5-44-560.5 443.43-546-180.93-23 70.5-130-100.5L1978 722v-75.5L643.5 1371 1920 596.81z" fill="#003639"/><g fill="#001e20"><circle cx="2059.5" cy="275.5" r="129.5" style="mix-blend-mode:screen" opacity=".15"/><circle cx="3255.5" cy="122.5" r="68.5" style="mix-blend-mode:screen" opacity=".2"/><circle cx="3604" cy="197" r="25" style="mix-blend-mode:screen" opacity=".2"/></g></svg>
